X:1
T:I’ll Be There (Garey)
T:I’ll Be There (Garey)
T:Anthony Johnson Showalter
T:Will H. Garey, 1898
T:Public Domain Courtesy of the Cyber Hymnal™
T:Public Domain Courtesy of the Cyber Hymnal™
C:Anthony Johnson Showalter
Z:Public Domain
Z:Courtesy of the Cyber Hymnal™
%%score ( 1 2 ) ( 3 4 )
L:1/8
Q:1/4=93
M:4/4
K:Ab
V:1 treble 
V:2 treble 
V:3 bass 
V:4 bass 
V:1
 [Ec]>[DB] | [CA]>[B,G] [CA]>[DB] [Ec]2 [CE]>[CE] | [DF]>[EG] [FA]>[DF] [CE]2 [CA]>[DB] | %3
w: 1.~Oft I’ve|heard my mo- ther tell Of a|home she loved so well, And her|
w: 2.~Just a-|cross the crys- tal sea, Mo- ther’s|sweet- ly call- ing me, And my|
w: 3.~O- ver|on the peace- ful shore, There my|Sav- ior I’ll a- dore, With His|
w: 4.~An- gels|watch the pearl- y gate, There’s a|mes- sage to re- late, I’ve not|
 [Ec]>[Ec] [Ec]>[Ed] [Ee]2 [EA]>[Ec] | [EB]6 [Ec]>[DB] | [CA]>[B,G] [CA]>[DB] [Ec]2 [CE]>[CE] | %6
w: last words soft- ly fell, I’ll be|there! Where the|an- gels sweet- ly sing, And their|
w: an- swer soon shall be, I’ll be|there; What a|meet- ing that will be, When my|
w: hand to guide me o’er, I’ll be|there! With the|an- gels’ hap- py band, We will|
w: long on earth to wait, I’ll be|there; Up the|glit- tering streets I’ll wend, There to|
 [DF]>[EG] [FA]>[DF] [CE]2 [CA]>[DB] | [Ec]>[Ec] [Ac]>[Ad] [Ae]2 [GB]>[Gc] | [EA]6 || %9
w: harps with mu- sic ring, In the|pal- ace of the King, I’ll be|there.|
w: mo- ther’s face I see, For ’tis|’thro e- ter- ni- ty, I’ll be|there.|
w: walk the gold- en strand, In that|fair and hap- py land, I’ll be|there.|
w: meet de- part- ed friend, In a|world that ne’er shall end, I’ll be|there.|
"^Refrain" [Ac]>[Bd] | [ce]4- [ce]>[ce] [Bd]>[Ac] | [GB]6 [EG]>[FA] | [GB]4- [GB]>[Bd] [Ac]>[GB] | %13
w: ||||
w: I’ll be|there, * yes I’ll be|there, I’ll be|there, * yes I’ll be|
w: ||||
w: ||||
 A6 [Ec]>[DB] | [CA]>[B,G] [CA]>[DB] [Ec]2 [CE]>[CE] | [DF]>[EG] [FA]>[DF] [CE]2 [CA]>[DB] | %16
w: |||
w: there, Where the|an- gels sweet- ly sing, And their|harps with mu- sic ring, In the|
w: |||
w: |||
 [Ec]>[Ec] [Ac]>[Ad] [Ae]2 [GB]>[Gc] | A4- !fermata![EA]6 |] %18
w: ||
w: pal- ace of the King, I’ll be|there. *|
w: ||
w: ||
V:2
 x2 | x8 | x8 | x8 | x8 | x8 | x8 | x8 | x6 || x2 | x8 | x8 | x8 | A6 x2 | x8 | x8 | x8 | %17
 E>EF>F x6 |] %18
V:3
 [A,,A,]>[A,,A,] | [A,,A,]>[A,,A,] [A,,A,]>[A,,A,] [A,,A,]2 [A,,A,]>[A,,A,] | %2
w: ~ ~|~ ~ ~ ~ ~ ~ ~|
 [D,A,]>[D,D] [D,D]>[D,A,] [A,,A,]2 [A,,A,]>[A,,A,] | %3
w: ~ ~ ~ ~ ~ ~ ~|
 [A,,A,]>[A,,A,] [A,,A,]>[A,,B,] [A,,C]2 [C,A,]>[A,,A,] | [E,G,]6 [E,G,]>[E,G,] | %5
w: ~ ~ ~ ~ ~ ~ ~|~ ~ ~|
 [A,,A,]>[A,,A,] [A,,A,]>[A,,A,] [A,,A,]2 [A,,A,]>[A,,A,] | %6
w: ~ ~ ~ ~ ~ ~ ~|
 [D,A,]>[D,D] [D,D]>[D,A,] [A,,A,]2 [A,,A,]>[A,,A,] | A,>A, [F,A,]>[F,B,] [E,C]2 [E,D]>[E,E] | %8
w: ~ ~ ~ ~ ~ ~ ~|~ ~ ~ ~ ~ ~ ~|
 [A,,C]6 || z2 | z2 [A,E]>[A,E] [A,E]2 z2 | z3/2 [E,E]/ [E,E]>[E,E] [E,E]2 z2 | %12
w: ~||I’ll be there,|yes I’ll be there,|
 z2 [E,E]>[E,E] [E,E]2 z2 | z3/2 [A,,A,C]/ [A,,A,C]>[A,,A,C] [A,,A,C]2 [A,,A,]>[A,,A,] | %14
w: I’ll be there,|yes I’ll be there, ~ ~|
 [A,,A,]>[A,,A,] [A,,A,]>[A,,A,] [A,,A,]2 [A,,A,]>[A,,A,] | %15
w: ~ ~ ~ ~ ~ ~ ~|
 [D,A,]>[D,D] [D,D]>[D,A,] [A,,A,]2 [A,,A,]>[A,,A,] | A,>A, [F,A,]>[F,B,] [E,C]2 [E,D]>[E,E] | %17
w: ~ ~ ~ ~ ~ ~ ~|~ ~ ~ ~ ~ ~ ~|
 C>C D>D !fermata![A,,C]6 |] %18
w: yes, I’ll be there *|
V:4
 x2 | x8 | x8 | x8 | x8 | x8 | x8 | A,>A, x6 | x6 || x2 | x8 | x8 | x8 | x8 | x8 | x8 | A,>A, x6 | %17
 A,,4- x6 |] %18

